
( pcb2gcode 2.1.0 )
( Software-independent Gcode )

G94 ( Millimeters per minute feed rate. )
G21 ( Units == Millimeters. )

G90 ( Absolute coordinates. )
G00 S15000 ( RPM spindle speed. )
G01 F600.00000 ( Feedrate. )

(Cancel exact stop check - this is the default mode)
G64 P0.0254

(Spindle speed 5000 - this probably is unnecessary, since the controller on the Shark doesn't handle spindle speed)
S 5000

(Spindle on, clockwise)
M03

G00 Z25.00000 (Retract to tool change height)



(Drill a set of evenly spaced holes to form a grid)
G00 X0 Y0 Z25.0000

G00 X88.0000 Y15.0833 Z5.0000
G01 X88.0000 Y15.0833 S8000.0000
G01 Z-6.0000 S200.0000
G01 Z5.0000
G01 X104.6667 Y15.0833 S8000.0000
G01 Z-6.0000 S200.0000
G01 Z5.0000
G01 X121.3333 Y15.0833 S8000.0000
G01 Z-6.0000 S200.0000
G01 Z5.0000
G01 X138.0000 Y15.0833 S8000.0000
G01 Z-6.0000 S200.0000
G01 Z5.0000
G01 X154.6667 Y15.0833 S8000.0000
G01 Z-6.0000 S200.0000
G01 Z5.0000
G01 X171.3333 Y15.0833 S8000.0000
G01 Z-6.0000 S200.0000
G01 Z5.0000
G01 X188.0000 Y15.0833 S8000.0000
G01 Z-6.0000 S200.0000
G01 Z5.0000
G01 X96.3333 Y23.4167 S8000.0000
G01 Z-6.0000 S200.0000
G01 Z5.0000
G01 X113.0000 Y23.4167 S8000.0000
G01 Z-6.0000 S200.0000
G01 Z5.0000
G01 X129.6667 Y23.4167 S8000.0000
G01 Z-6.0000 S200.0000
G01 Z5.0000
G01 X146.3333 Y23.4167 S8000.0000
G01 Z-6.0000 S200.0000
G01 Z5.0000
G01 X163.0000 Y23.4167 S8000.0000
G01 Z-6.0000 S200.0000
G01 Z5.0000
G01 X179.6667 Y23.4167 S8000.0000
G01 Z-6.0000 S200.0000
G01 Z5.0000
G01 X88.0000 Y31.7500 S8000.0000
G01 Z-6.0000 S200.0000
G01 Z5.0000
G01 X104.6667 Y31.7500 S8000.0000
G01 Z-6.0000 S200.0000
G01 Z5.0000
G01 X121.3333 Y31.7500 S8000.0000
G01 Z-6.0000 S200.0000
G01 Z5.0000
G01 X138.0000 Y31.7500 S8000.0000
G01 Z-6.0000 S200.0000
G01 Z5.0000
G01 X154.6667 Y31.7500 S8000.0000
G01 Z-6.0000 S200.0000
G01 Z5.0000
G01 X171.3333 Y31.7500 S8000.0000
G01 Z-6.0000 S200.0000
G01 Z5.0000
G01 X188.0000 Y31.7500 S8000.0000
G01 Z-6.0000 S200.0000
G01 Z5.0000
G01 X96.3333 Y40.0833 S8000.0000
G01 Z-6.0000 S200.0000
G01 Z5.0000
G01 X113.0000 Y40.0833 S8000.0000
G01 Z-6.0000 S200.0000
G01 Z5.0000
G01 X129.6667 Y40.0833 S8000.0000
G01 Z-6.0000 S200.0000
G01 Z5.0000
G01 X146.3333 Y40.0833 S8000.0000
G01 Z-6.0000 S200.0000
G01 Z5.0000
G01 X163.0000 Y40.0833 S8000.0000
G01 Z-6.0000 S200.0000
G01 Z5.0000
G01 X179.6667 Y40.0833 S8000.0000
G01 Z-6.0000 S200.0000
G01 Z5.0000
G01 X88.0000 Y48.4167 S8000.0000
G01 Z-6.0000 S200.0000
G01 Z5.0000
G01 X104.6667 Y48.4167 S8000.0000
G01 Z-6.0000 S200.0000
G01 Z5.0000
G01 X121.3333 Y48.4167 S8000.0000
G01 Z-6.0000 S200.0000
G01 Z5.0000
G01 X138.0000 Y48.4167 S8000.0000
G01 Z-6.0000 S200.0000
G01 Z5.0000
G01 X154.6667 Y48.4167 S8000.0000
G01 Z-6.0000 S200.0000
G01 Z5.0000
G01 X171.3333 Y48.4167 S8000.0000
G01 Z-6.0000 S200.0000
G01 Z5.0000
G01 X188.0000 Y48.4167 S8000.0000
G01 Z-6.0000 S200.0000
G01 Z5.0000
G01 Z-6.0000 S200.0000
G01 Z5.0000
G00 X0.0000 Y0.0000 Z25.0000

G04 P0 ( dwell for no time -- G64 should not smooth over this point )
G00 Z25.000000 ( retract )

M02 ( Program end. )

