
( pcb2gcode 2.1.0 )
( Software-independent Gcode )

G94 ( Millimeters per minute feed rate. )
G21 ( Units == Millimeters. )

G90 ( Absolute coordinates. )
G00 S15000 ( RPM spindle speed. )
G01 F600.00000 ( Feedrate. )

(Cancel exact stop check - this is the default mode)
G64 P0.0254

(Spindle speed 5000 - this probably is unnecessary, since the controller on the Shark doesn't handle spindle speed)
S 5000

(Spindle on, clockwise)
M03

G00 Z25.00000 (Retract to tool change height)



G01 X-43.0045 Y-40.5897
G01 Z-4.0000
G02 I43.0045 J40.5897 X43.0045 Y-40.5897
G01 Z5.0000

G01 X-43.0117 Y-40.5965
G01 Z-4.0000
G02 I43.0117 J40.5965 X43.0117 Y-40.5965
G01 Z5.0000

G01 X-43.0045 Y-40.5897
G01 Z-6.5000
G02 I43.0045 J40.5897 X43.0045 Y-40.5897
G01 Z5.0000

G01 X-43.0117 Y-40.5965
G01 Z-6.5000
G02 I43.0117 J40.5965 X43.0117 Y-40.5965
G01 Z5.0000

( Hogging rect x:-40.425000000000004 y:-38.675000000000004 width:0.40000000000000036 height:71.35000000000001 )
G01 X-40.4250 Y-38.6750
G01 Z-4.0000
G01 X-40.0250 Y-38.6750
G01 X-40.0250 Y-38.6750
G01 X-40.0250 Y32.6750
G01 X-40.4250 Y32.6750

( Outlining rect x:-42.0125 y:-40.2625 width:3.575 height:74.525 )
G01 X-42.0125 Y-40.2625
G01 Z-4.0000
G01 X-42.0125 Y34.2625
G01 X-38.4375 Y34.2625
G01 X-38.4375 Y-40.2625
G01 X-42.0125 Y-40.2625

( Hogging rect x:-40.425000000000004 y:-38.675000000000004 width:0.40000000000000036 height:71.35000000000001 )
G01 X-40.4250 Y-38.6750
G01 Z-6.5000
G01 X-40.0250 Y-38.6750
G01 X-40.0250 Y-38.6750
G01 X-40.0250 Y32.6750
G01 X-40.4250 Y32.6750

( Outlining rect x:-42.0125 y:-40.2625 width:3.575 height:74.525 )
G01 X-42.0125 Y-40.2625
G01 Z-6.5000
G01 X-42.0125 Y34.2625
G01 X-38.4375 Y34.2625
G01 X-38.4375 Y-40.2625
G01 X-42.0125 Y-40.2625
G01 Z5.0000

( Hogging rect x:-35.675000000000004 y:32.275 width:71.35000000000001 height:0.40000000000000036 )
G01 X-35.6750 Y32.2750
G01 Z-4.0000
G01 X35.6750 Y32.2750
G01 X-35.6750 Y32.6750
G01 X35.6750 Y32.6750
G01 X-35.6750 Y32.6750

( Outlining rect x:-37.2625 y:30.6875 width:74.525 height:3.575 )
G01 X-37.2625 Y30.6875
G01 Z-4.0000
G01 X-37.2625 Y34.2625
G01 X37.2625 Y34.2625
G01 X37.2625 Y30.6875
G01 X-37.2625 Y30.6875

( Hogging rect x:-35.675000000000004 y:32.275 width:71.35000000000001 height:0.40000000000000036 )
G01 X-35.6750 Y32.2750
G01 Z-6.5000
G01 X35.6750 Y32.2750
G01 X-35.6750 Y32.6750
G01 X35.6750 Y32.6750
G01 X-35.6750 Y32.6750

( Outlining rect x:-37.2625 y:30.6875 width:74.525 height:3.575 )
G01 X-37.2625 Y30.6875
G01 Z-6.5000
G01 X-37.2625 Y34.2625
G01 X37.2625 Y34.2625
G01 X37.2625 Y30.6875
G01 X-37.2625 Y30.6875
G01 Z5.0000

( Hogging rect x:40.025 y:-38.675000000000004 width:0.40000000000000036 height:71.35000000000001 )
G01 X40.0250 Y-38.6750
G01 Z-4.0000
G01 X40.4250 Y-38.6750
G01 X40.4250 Y-38.6750
G01 X40.4250 Y32.6750
G01 X40.0250 Y32.6750

( Outlining rect x:38.4375 y:-40.2625 width:3.575 height:74.525 )
G01 X38.4375 Y-40.2625
G01 Z-4.0000
G01 X38.4375 Y34.2625
G01 X42.0125 Y34.2625
G01 X42.0125 Y-40.2625
G01 X38.4375 Y-40.2625

( Hogging rect x:40.025 y:-38.675000000000004 width:0.40000000000000036 height:71.35000000000001 )
G01 X40.0250 Y-38.6750
G01 Z-6.5000
G01 X40.4250 Y-38.6750
G01 X40.4250 Y-38.6750
G01 X40.4250 Y32.6750
G01 X40.0250 Y32.6750

( Outlining rect x:38.4375 y:-40.2625 width:3.575 height:74.525 )
G01 X38.4375 Y-40.2625
G01 Z-6.5000
G01 X38.4375 Y34.2625
G01 X42.0125 Y34.2625
G01 X42.0125 Y-40.2625
G01 X38.4375 Y-40.2625
G01 Z5.0000

( Hogging rect x:-35.675000000000004 y:-38.675000000000004 width:71.35000000000001 height:0.40000000000000036 )
G01 X-35.6750 Y-38.6750
G01 Z-4.0000
G01 X35.6750 Y-38.6750
G01 X-35.6750 Y-38.2750
G01 X35.6750 Y-38.2750
G01 X-35.6750 Y-38.2750

( Outlining rect x:-37.2625 y:-40.2625 width:74.525 height:3.575 )
G01 X-37.2625 Y-40.2625
G01 Z-4.0000
G01 X-37.2625 Y-36.6875
G01 X37.2625 Y-36.6875
G01 X37.2625 Y-40.2625
G01 X-37.2625 Y-40.2625

( Hogging rect x:-35.675000000000004 y:-38.675000000000004 width:71.35000000000001 height:0.40000000000000036 )
G01 X-35.6750 Y-38.6750
G01 Z-6.5000
G01 X35.6750 Y-38.6750
G01 X-35.6750 Y-38.2750
G01 X35.6750 Y-38.2750
G01 X-35.6750 Y-38.2750

( Outlining rect x:-37.2625 y:-40.2625 width:74.525 height:3.575 )
G01 X-37.2625 Y-40.2625
G01 Z-6.5000
G01 X-37.2625 Y-36.6875
G01 X37.2625 Y-36.6875
G01 X37.2625 Y-40.2625
G01 X-37.2625 Y-40.2625
G01 Z5.0000

G01 X0.0000 Y-66.5875
G01 Z-4.0000
G02 I-0.0000 J66.5875 X0.0000 Y-66.5875
G01 Z5.0000

G01 X0.0000 Y-68.1750
G01 Z-4.0000
G02 I-0.0000 J68.1750 X0.0000 Y-68.1750
G01 Z5.0000

G01 X0.0000 Y-69.7625
G01 Z-4.0000
G02 I-0.0000 J69.7625 X0.0000 Y-69.7625
G01 Z5.0000

G01 X0.0000 Y-66.5875
G01 Z-8.0000
G02 I-0.0000 J66.5875 X0.0000 Y-66.5875
G01 Z5.0000

G01 X0.0000 Y-68.1750
G01 Z-8.0000
G02 I-0.0000 J68.1750 X0.0000 Y-68.1750
G01 Z5.0000

G01 X0.0000 Y-69.7625
G01 Z-8.0000
G02 I-0.0000 J69.7625 X0.0000 Y-69.7625
G01 Z5.0000

G01 X0.0000 Y-66.5875
G01 Z-11.7000
G02 I-0.0000 J66.5875 X0.0000 Y-66.5875
G01 Z5.0000

G01 X0.0000 Y-68.1750
G01 Z-11.7000
G02 I-0.0000 J68.1750 X0.0000 Y-68.1750
G01 Z5.0000

G01 X0.0000 Y-69.7625
G01 Z-11.7000
G02 I-0.0000 J69.7625 X0.0000 Y-69.7625
G01 Z5.0000

G04 P0 ( dwell for no time -- G64 should not smooth over this point )
G00 Z25.000000 ( retract )

M02 ( Program end. )

